src/assets/nft-action/acquired.svg

<svg fill="none" height="18" viewBox="0 0 18 18" width="18" xmlns="http://www.w3.org/2000/svg" xmlns:xlink="http://www.w3.org/1999/xlink"><linearGradient id="a" gradientUnits="userSpaceOnUse" x1="0" x2="18" y1="0" y2="18"><stop offset="0" stop-color="#acffd2"/><stop offset="1" stop-color="#54ffc1"/></linearGradient><clipPath id="b"><path d="m0 0h18v18h-18z"/></clipPath><clipPath id="c"><path d="m4.5 4.5h9v9h-9z"/></clipPath><g clip-path="url(#b)"><circle cx="9" cy="9" fill="url(#a)" r="9"/><g clip-path="url(#c)" stroke="#181a20" stroke-linecap="round" stroke-linejoin="round" stroke-width=".75"><path d="m6 10.875v.75c0 .1989.07902.3897.21967.5303.14065.1407.33142.2197.53033.2197h4.5c.1989 0 .3897-.079.5303-.2197.1407-.1406.2197-.3314.2197-.5303v-.75"/><path d="m7.125 8.625 1.875 1.875 1.875-1.875"/><path d="m9 6v4.5"/></g></g></svg>

<svg width="18" height="18" viewBox="0 0 18 18" fill="none" xmlns="http://www.w3.org/2000/svg">
    <g clip-path="url(#clip0_15985_74988)">
        <circle cx="9" cy="9" r="9" fill="url(#paint0_linear_15985_74988)"/>
        <g clip-path="url(#clip1_15985_74988)">
            <path d="M6 10.875V11.625C6 11.8239 6.07902 12.0147 6.21967 12.1553C6.36032 12.296 6.55109 12.375 6.75 12.375H11.25C11.4489 12.375 11.6397 12.296 11.7803 12.1553C11.921 12.0147 12 11.8239 12 11.625V10.875" stroke="#181A20" stroke-width="0.75" stroke-linecap="round" stroke-linejoin="round"/>
            <path d="M7.125 8.625L9 10.5L10.875 8.625" stroke="#181A20" stroke-width="0.75" stroke-linecap="round" stroke-linejoin="round"/>
            <path d="M9 6V10.5" stroke="#181A20" stroke-width="0.75" stroke-linecap="round" stroke-linejoin="round"/>
        </g>
    </g>
    <defs>
        <linearGradient id="paint0_linear_15985_74988" x1="0" y1="0" x2="18" y2="18" gradientUnits="userSpaceOnUse">
            <stop stop-color="#ACFFD2"/>
            <stop offset="1" stop-color="#54FFC1"/>
        </linearGradient>
        <clipPath id="clip0_15985_74988">
            <rect width="18" height="18" fill="white"/>
        </clipPath>
        <clipPath id="clip1_15985_74988">
            <rect width="9" height="9" fill="white" transform="translate(4.5 4.5)"/>
        </clipPath>
    </defs>
</svg>
